SVG_Azure_Grouped/AI/Cognitive Services Health Bot.svg

<?xml version="1.0" encoding="UTF-8" standalone="no"?>
<!-- Generated by Microsoft Visio, SVG Export Cognitive Services Health Bot.svg Page-1 -->

<svg
   xmlns:dc="http://purl.org/dc/elements/1.1/"
   xmlns:cc="http://creativecommons.org/ns#"
   xmlns:rdf="http://www.w3.org/1999/02/22-rdf-syntax-ns#"
   xmlns:svg="http://www.w3.org/2000/svg"
   xmlns="http://www.w3.org/2000/svg"
   xmlns:sodipodi="http://sodipodi.sourceforge.net/DTD/sodipodi-0.dtd"
   xmlns:inkscape="http://www.inkscape.org/namespaces/inkscape"
   width="0.78740412in"
   height="0.78740412in"
   viewBox="0 0 56.693001 56.693001"
   xml:space="preserve"
   class="st5"
   version="1.1"
   id="svg65"
   sodipodi:docname="Cognitive Services Health Bot.svg"
   style="font-size:12px;overflow:visible;color-interpolation-filters:sRGB;fill:none;fill-rule:evenodd;stroke-linecap:square;stroke-miterlimit:3"
   inkscape:version="0.92.5 (2060ec1f9f, 2020-04-08)"><metadata
   id="metadata71"><rdf:RDF><cc:Work
       rdf:about=""><dc:format>image/svg+xml</dc:format><dc:type
         rdf:resource="http://purl.org/dc/dcmitype/StillImage" /></cc:Work></rdf:RDF></metadata><defs
   id="defs69" /><sodipodi:namedview
   pagecolor="#ffffff"
   bordercolor="#666666"
   borderopacity="1"
   objecttolerance="10"
   gridtolerance="10"
   guidetolerance="10"
   inkscape:pageopacity="0"
   inkscape:pageshadow="2"
   inkscape:window-width="640"
   inkscape:window-height="480"
   id="namedview67"
   showgrid="false"
   inkscape:zoom="0.92182544"
   inkscape:cx="37.487396"
   inkscape:cy="37.872866"
   inkscape:window-x="0"
   inkscape:window-y="0"
   inkscape:window-maximized="0"
   inkscape:current-layer="svg65" />
	<style
   type="text/css"
   id="style2">
	<![CDATA[
		.st1 {fill:#0071c6;stroke:none;stroke-linecap:butt;stroke-width:38.8142}
		.st2 {fill:#ffffff;stroke:none;stroke-linecap:butt;stroke-width:70.081}
		.st3 {fill:#0071c6;stroke:none;stroke-width:1}
		.st4 {fill:#0071c6;stroke:none;stroke-linecap:butt;stroke-width:39.367}
		.st5 {fill:none;fill-rule:evenodd;font-size:12px;overflow:visible;stroke-linecap:square;stroke-miterlimit:3}
	]]>
	</style>

	<g
   id="g63"
   transform="translate(-67.8895,-67.716601)">
		<title
   id="title4">Page-1</title>
		<g
   id="group18538-1"
   transform="translate(67.8895,-67.6009)">
			<title
   id="title6">Cognitive Services Health Bot.18538</title>
			<g
   id="group18539-2">
				<title
   id="title8">Page-1</title>
				<g
   id="group18540-3">
					<title
   id="title10">Sheet.18540</title>
					<g
   id="group18541-4">
						<title
   id="title12">path1448</title>
						<g
   id="shape18542-5">
							<title
   id="title14">Sheet.18542</title>
							<circle
   cx="28.3465"
   cy="163.664"
   class="st1"
   id="ellipse16"
   r="28.3465"
   style="fill:#0071c6;stroke:none;stroke-width:38.81420135;stroke-linecap:butt" />
						</g>
					</g>
					<g
   id="group18543-7"
   transform="translate(2.19158,-2.48014)">
						<title
   id="title20">path1450</title>
						<g
   id="shape18544-8">
							<title
   id="title22">Sheet.18544</title>
							<circle
   cx="25.924101"
   cy="166.086"
   class="st2"
   id="ellipse24"
   r="25.924101"
   style="fill:#ffffff;stroke:none;stroke-width:70.08100128;stroke-linecap:butt" />
						</g>
					</g>
					<g
   id="group18545-10"
   transform="translate(6.18154,-10.1025)">
						<title
   id="title28">path1425-4-0-5-2-5</title>
						<g
   id="shape18546-11">
							<title
   id="title30">Sheet.18546</title>
							<path
   d="m 12.77,157.91 c -0.19,0 -0.39,0 -0.6,0 0,0 -8.25,-0.16 -10.7,9.44 0,0 -1.47,6.25 3.93,11.11 l 16.54,13.55 v -3.37 C 18.29,185.79 9.4,178.36 9.4,178.36 2.02,173.57 4.16,167.41 4.16,167.41 c 1.55,-6.61 7.66,-6.93 7.66,-6.93 0,0 6.31,-0.98 10.12,6.82 v -4.37 c 0,0 -3.06,-4.91 -9.17,-5.02 z m 9.17,30.73 0.01,3.37 16.54,-13.55 c 5.4,-4.86 3.92,-11.11 3.92,-11.11 -2.44,-9.6 -10.7,-9.44 -10.7,-9.44 -6.51,-0.21 -9.76,5.02 -9.76,5.02 v 4.37 c 3.8,-7.8 10.11,-6.82 10.11,-6.82 0,0 6.12,0.32 7.67,6.93 0,0 2.13,6.16 -5.24,10.95 0,0 -8.9,7.43 -12.55,10.28 z"
   class="st3"
   id="path32"
   inkscape:connector-curvature="0"
   style="fill:#0071c6;stroke:none;stroke-width:1" />
						</g>
					</g>
					<g
   id="group18547-13"
   transform="translate(26.3048,-26.8181)">
						<title
   id="title36">path1470-58</title>
						<g
   id="shape18548-14">
							<title
   id="title38">Sheet.18548</title>
							<circle
   cx="1.87438"
   cy="190.136"
   class="st4"
   id="ellipse40"
   r="1.87438"
   style="fill:#0071c6;stroke:none;stroke-width:39.36700058;stroke-linecap:butt" />
						</g>
					</g>
					<g
   id="group18549-16"
   transform="translate(32.5553,-26.8181)">
						<title
   id="title44">path1470-58.86</title>
						<g
   id="shape18550-17">
							<title
   id="title46">Sheet.18550</title>
							<circle
   cx="1.87438"
   cy="190.136"
   class="st4"
   id="ellipse48"
   r="1.87438"
   style="fill:#0071c6;stroke:none;stroke-width:39.36700058;stroke-linecap:butt" />
						</g>
					</g>
					<g
   id="group18551-19"
   transform="translate(20.3052,-26.8181)">
						<title
   id="title52">path1470-58.87</title>
						<g
   id="shape18552-20">
							<title
   id="title54">Sheet.18552</title>
							<circle
   cx="1.87438"
   cy="190.136"
   class="st4"
   id="ellipse56"
   r="1.87438"
   style="fill:#0071c6;stroke:none;stroke-width:39.36700058;stroke-linecap:butt" />
						</g>
					</g>
				</g>
			</g>
		</g>
	</g>
</svg>

<?xml version="1.0" encoding="UTF-8" standalone="no"?>
<!DOCTYPE svg PUBLIC "-//W3C//DTD SVG 1.1//EN" "http://www.w3.org/Graphics/SVG/1.1/DTD/svg11.dtd">
<!-- Generated by Microsoft Visio, SVG Export Cognitive Services Health Bot.svg Page-1 -->
<svg xmlns="http://www.w3.org/2000/svg" xmlns:xlink="http://www.w3.org/1999/xlink" xmlns:ev="http://www.w3.org/2001/xml-events"
		width="2.66681in" height="2.66681in" viewBox="0 0 192.01 192.01" xml:space="preserve" color-interpolation-filters="sRGB"
		class="st5">
	<style type="text/css">
	<![CDATA[
		.st1 {fill:#0071c6;stroke:none;stroke-linecap:butt;stroke-width:38.8142}
		.st2 {fill:#ffffff;stroke:none;stroke-linecap:butt;stroke-width:70.081}
		.st3 {fill:#0071c6;stroke:none;stroke-width:1}
		.st4 {fill:#0071c6;stroke:none;stroke-linecap:butt;stroke-width:39.367}
		.st5 {fill:none;fill-rule:evenodd;font-size:12px;overflow:visible;stroke-linecap:square;stroke-miterlimit:3}
	]]>
	</style>

	<g>
		<title>Page-1</title>
		<g id="group18108-1" transform="translate(67.8895,-67.6009)">
			<title>Cognitive Services Health Bot.18108</title>
			<g id="group18109-2">
				<title>Page-1</title>
				<g id="group18110-3">
					<title>Sheet.18110</title>
					<g id="group18111-4">
						<title>path1448</title>
						<g id="shape18112-5">
							<title>Sheet.18112</title>
							<ellipse cx="28.3465" cy="163.664" rx="28.3465" ry="28.3465" class="st1"/>
						</g>
					</g>
					<g id="group18113-7" transform="translate(2.19158,-2.48014)">
						<title>path1450</title>
						<g id="shape18114-8">
							<title>Sheet.18114</title>
							<ellipse cx="25.9241" cy="166.086" rx="25.9241" ry="25.9241" class="st2"/>
						</g>
					</g>
					<g id="group18115-10" transform="translate(6.18154,-10.1025)">
						<title>path1425-4-0-5-2-5</title>
						<g id="shape18116-11">
							<title>Sheet.18116</title>
							<path d="M12.77 157.91 C12.58 157.91 12.38 157.91 12.17 157.91 C12.17 157.91 3.92 157.75 1.47 167.35
										 C1.47 167.35 0 173.6 5.4 178.46 L21.94 192.01 L21.94 188.64 C18.29 185.79 9.4 178.36 9.4
										 178.36 C2.02 173.57 4.16 167.41 4.16 167.41 C5.71 160.8 11.82 160.48 11.82 160.48 C11.82
										 160.48 18.13 159.5 21.94 167.3 L21.94 162.93 C21.94 162.93 18.88 158.02 12.77 157.91 ZM21.94
										 188.64 L21.95 192.01 L38.49 178.46 C43.89 173.6 42.41 167.35 42.41 167.35 C39.97 157.75
										 31.71 157.91 31.71 157.91 C25.2 157.7 21.95 162.93 21.95 162.93 L21.95 167.3 C25.75 159.5
										 32.06 160.48 32.06 160.48 C32.06 160.48 38.18 160.8 39.73 167.41 C39.73 167.41 41.86 173.57
										 34.49 178.36 C34.49 178.36 25.59 185.79 21.94 188.64 Z" class="st3"/>
						</g>
					</g>
					<g id="group18117-13" transform="translate(26.3048,-26.8181)">
						<title>path1470-58</title>
						<g id="shape18118-14">
							<title>Sheet.18118</title>
							<ellipse cx="1.87438" cy="190.136" rx="1.87438" ry="1.87438" class="st4"/>
						</g>
					</g>
					<g id="group18119-16" transform="translate(32.5553,-26.8181)">
						<title>path1470-58.86</title>
						<g id="shape18120-17">
							<title>Sheet.18120</title>
							<ellipse cx="1.87438" cy="190.136" rx="1.87438" ry="1.87438" class="st4"/>
						</g>
					</g>
					<g id="group18121-19" transform="translate(20.3052,-26.8181)">
						<title>path1470-58.87</title>
						<g id="shape18122-20">
							<title>Sheet.18122</title>
							<ellipse cx="1.87438" cy="190.136" rx="1.87438" ry="1.87438" class="st4"/>
						</g>
					</g>
				</g>
			</g>
		</g>
	</g>
</svg>
